!!!COM: Music21
!!!OTL: Mazurca de Seivane
!!!OMV: pezas_mazurcas_mazurca-de-seivane_mazurca-de-seivane-partitura.musicxml
**kern
*I"Bagpipes
*I'Bag
*clefG^2
*ITrd1c2
*k[b-e-]
*M3/4
=1
!LO:TX:a:t=Moderato
*MM112
!LO:TX:a:t=[quarter]=112
2r
8b-L
8ddJ
=||
4ff
4ff
8ggL
8aaJ
=
4ff
4ff
8ggL
8aaJ
=
8ffL
8ggJ
8ffL
8ee-J
8ddL
8ccJ
=
4ff
4b-
8b-L
8ddJ
=
4ff
4ff
8ggL
8aaJ
=
4ff
4ff
8ggL
8aaJ
!!linebreak:original
=
8ffL
8ggJ
8ffL
8ee-J
8ddL
8ccJ
=
4b-
4b-
8b-L
8ddJ
=||
4ff
4ff
8ggL
8aaJ
=
4ff
4ff
8ggL
8aaJ
=
8ffL
8ggJ
8ffL
8ee-J
8ddL
8ccJ
=
4ff
4b-
8b-L
8ddJ
=
4ff
4ff
8ggL
8aaJ
!!linebreak:original
=
4ff
4ff
8ggL
8aaJ
!!linebreak:original
=
8ffL
8ggJ
8ffL
8ee-J
8ddL
8ccJ
=
[2.b-
=
4b-]
8bb-L
8aaJ
8ggL
8bb-J
=
8aaL
8ggJ
2ff
=
8bb-L
8aaJ
8ggL
8bb-J
8aaL
8ggJ
=
2ff
8ggL
8ffJ
=||
*M4/4
8ee-L
8gg
8ff
8ee-J
4ff
12ggL
12ff
12ee-J
!!linebreak:original
=
8ddL
8ff
8ee-
8ddJ
4ee-
12ffL
12ee-
12ddJ
=
8ccL
8ee-
8dd
8ccJ
4dd
12ee-L
12dd
12ccJ
=
8b-L
8dd
8cc
8b-J
4cc
12ddL
12cc
12b-J
=
*M3/4
8aL
8ccJ
8b-L
8aJ
4b-
=
2b-
12ddL
12cc
12b-J
=
8aL
8b-J
8ccL
8ddJ
8ee-L
8ccJ
!!linebreak:original
=
4ff
4b-
12ddL
12cc
12b-J
=
8aL
8b-J
8ccL
8ddJ
12ee-L
12dd
12ccJ
=
2b-
12ddL
12cc
12b-J
=
8aL
8b-J
8ccL
8ddJ
8ee-L
8ccJ
=
4ff
4b-
12ddL
12cc
12b-J
=
8aL
8b-J
8ccL
8ddJ
8ee-
24ee-LL
24dd
24ccJJ
=||
2.b-
!!linebreak:original
=||
!LO:TX:a:t=Fine
2r
8b-L
8ddJ
==
*-
